X:1
T:Short Grass
R:jig
B:Ryan's Mammoth Collection
Z:Contributed 20020710 by Ray Davies, ray:davies99.freeserve.co.uk
M:6/8
L:1/8
K:C
"_4"ve/ud/|vcGE cGE|EDE CEG|cGE cGE|Add d"^4"ed|\
cGE cGE|EDE CEG|c"^4"ee (e2d)|cAA A2:|
z|vgag ged|"^4"ecc cde|aba age|edd (d2e)|\
gag ged|"^4"ecc cde|fed fed|"^4"ecA A2:|
